X:4
T:Tonight I Had the Strangest Dream
T:I natt jag dr\"omde
R:misc
Z:id:hn-misc-4
M:3/4
L:1/8
Q:1/4=160
K:G
d2 | d4 B2 | G4 d2 | d4 BA | G4 g2 | g4 e2 | c2 d2 e2 | d6- | d4
d2 | d4 c2 | A4 d2 | d4 BA | G4 B2 | A4 B2 | c2 B2 A2 | G6- | G4 ||
g2 | g4 e2 | c4 g2 | g4 d2 | B4 d2 | d4 d2 | d2 e2 d2 | d6- | d4
g2 | g4 e2 | c4 g2 | g4 d2 | B4 B2 | A4 B2 | c2 B2 A2 | G6- | G4 || 

